X:260
T: Tanz- und Scherzliedchen
N: A0304A
O: Europa, Mitteleuropa, Deutschland
N: Werlins Hs. 1646. S. 1765
R: Romanze, Ballade, Lied
M: 3/2
L: 1/2
K: F
F2F | G2A | B2B | A2A | G2G | F3
F2F | G2A | B2B | A2A | G2G | F2
A | A2B | c2c | GGB | A2G | A2A | GG
F | G2A | B2A | G3 | F3

